X:155
T:Cupcakes of Hope
R:double jig
C:2012 L.E. McCullough 
M:6/8
L:1/8
K:Bminor
de||: ~f3 fed | ~e3 ecd | ~e3 fec | dcA Bde | 
~f3 fed | ~e3 ecd | ~e3 ~f3 |1 edA B3 :|2 dcA BdA ||:
~B3 dcA | ~B3 ecA | ~B3 def | gfe fdA | 
~B3 dcA | ~B3 ecA | ~B3 def | ecA B3 :||
<end>
<start>
